build/img/svg/tg.svg

<svg width="40" height="40" viewBox="0 0 40 40" fill="none" xmlns="http://www.w3.org/2000/svg">
<rect width="40" height="40" rx="20" fill="#0088CC"/>
<path d="M15.8476 22.9845L15.5168 27.6378C15.9901 27.6378 16.1951 27.4345 16.441 27.1903L18.6601 25.0695L23.2585 28.437C24.1018 28.907 24.696 28.6595 24.9235 27.6612L27.9418 13.5178L27.9426 13.517C28.2101 12.2703 27.4918 11.7828 26.6701 12.0887L8.92848 18.8812C7.71765 19.3512 7.73598 20.0262 8.72265 20.332L13.2585 21.7428L23.7943 15.1503C24.2901 14.822 24.741 15.0037 24.3701 15.332L15.8476 22.9845Z" fill="white"/>
</svg>

<svg width="40" height="40" viewBox="0 0 40 40" fill="none" xmlns="http://www.w3.org/2000/svg"><rect width="40" height="40" rx="20" fill="#08C"/><path d="M15.848 22.985l-.331 4.653c.473 0 .678-.204.924-.448l2.22-2.12 4.598 3.367c.843.47 1.437.223 1.665-.776l3.018-14.143v-.001c.268-1.247-.45-1.734-1.272-1.428L8.928 18.88c-1.21.47-1.192 1.145-.205 1.451l4.535 1.41 10.536-6.592c.496-.328.947-.146.576.182l-8.522 7.652z" fill="#fff"/></svg>
